X:16636
T:The Dionne Reel
M:C|
L:1/8
S:from Nathan Curry
R:Reel
Z:a five part reel named for the Dionne quintuplets. Played ABABCCDDEE.
K:D
|"A"Adfd gdfd|Adfd ed (3Bcd|Adfd gdfd|efec d2(3dcB|
Adfd gdfd|Adfd ed (3Bcd|Adfd gdfd|efec d2fg|]
|"B"afbf afde|fded Bcde|afbf afde|fded d2fg|
afbf afde|fded Bcde|afbf afde|fded d2:|
"C"A|~B2AG BGAG|BGAG EFGA|~B2AG BGAG|EGFA G3:|
|:"D"F2Ad fdAF|G2Bd ~g3B|ABce gece|defg afdA|
F2Ad fdAF|G2Bd ~g3B|ABce gece|1 dfec dBAG:|2 dfec defg|]
|:"E"a2fd afda|g2e=c gefg|a2fd afda|1 gece defg:|2 gece d3B:|
